X:1
T:Not Now, My Child
T:Ira David Sankey
T:Not Now, My Child
T:Public Domain
T:Public Domain
C:Ira David Sankey
Z:Public Domain
%%score ( 1 2 ) 3
L:1/8
M:4/4
K:F
V:1 treble 
V:2 treble 
V:3 bass 
V:1
 [CF] | [CF]3 [CF] [CF]3 [CF] | [CF][CE][CF][FA] [FA] [EG]2 [EG] | [EG]3 [^D^F] [EG]3 [FA] | %4
w: 1.~Not|now, my child, a|lit- tle more rough toss- ing, A|lit- tle long- er|
w: 2.~Not|now, for I have|wand- ’rers in the dis- tance, And|thou must call them|
w: 3.~Not|now; for I have|loved ones sad and wea- ry; Wilt|thou not cheer them|
w: 4.~Not|now, for wound- ed|hearts are sore- ly bleed- ing And|thou must teach those|
w: 5.~Go,|with the Name of|Je- sus, to the dy- ing, And|speak that Name in|
w: 6.~One|lit- tle hour! and|then the glor- ious crown- ing, The|gold- en harp- strings,|
 [GB][Ac][Bd][Ac] [FA]3 [FA] | [FA]3 [FA] [FA]3 [FA] | [FA][EG][EG][EB] [Fd] [Fc]2 [Fc] | %7
w: on the bil- lows’ foam; A|few more jour- neyings|in the des- ert dark- ness, And|
w: in with pa- tient love; Not|now, for I have|sheep up- on the mount- ain, And|
w: with a kind- ly smile? Sick|ones, who need thee|in their lone- ly sor- row; Wilt|
w: wi- dowed hearts to sing: Not|now; for or- phans’|tears are quick- ly fall- ing, They|
w: all its liv- ing power; Why|should thy faint- ing|heart grow chill and wea- ry? Canst|
w: and the vic- tor’s palm; One|lit- tle hour! and|then the hal- le- lu- jah! E-|
 [Fc]3 [CB] [CA][DG][CF][FB] | [FA]2 [EG]2 F3 |] %9
w: then, the sun- shine of thy|Fa- ther’s home!|
w: thou must fol- low them wher-|e’er they rove.|
w: thou not tend them yet a|lit- tle while?|
w: must be ga- thered ’neath some|shel- tering wing.|
w: thou not watch with Me one|lit- tle hour?|
w: ter- ni- ty’s long, deep thanks-|giv- ing psalm!|
V:2
 x | x8 | x8 | x8 | x8 | x8 | x8 | x8 | x4 F3 |] %9
V:3
 [F,A,] | [F,A,]3 [F,A,] [F,A,]3 [F,A,] | [F,A,][C,G,][A,,F,][F,,C] [C,C] [C,C]2 [C,C] | %3
 [C,C]3 [C,C] [C,C]3 [C,C] | [C,C][C,C][C,C][C,C] [F,C]3 [F,C] | [F,C]3 [F,C] [F,C]3 [F,C] | %6
 [F,C][C,C][F,C][F,D] [F,B,] [F,A,]2 [F,,A,] | [F,,A,]3 [G,,E,] [A,,F,][B,,G,][C,A,][D,B,] | %8
 [C,C]2 [C,B,]2 [F,A,]3 |] %9

